X:169
T:Peter's Peerie Boat
C:Joe Buchanan's Scottish Tome - Page 265.2
I:265 2
Z:Carl Allison
C:Tom Anderson
R:Jig
L:1/8
M:6/8
K:D
A | d2 d D2 D | EFG ABc | d2 d Bed | c3 A3 |
d2 d D2 D | EFG ABc | d2 A GFE | FDD D2 :|
A | d2 d f2 d | c2 c e2 c | B2 B dcB | A3 F3 |
GFG BAG | F2 A d3 | E2 G B3 | C2 E A3 |
dcd fed | cBc edc | B2 B dcB | A3 F3 |
GFG BAG | F2 A a2 g | fed Adc | d3 D2 |]

